icon-themes/breeze_svg/cmd/lc_dataincolumns.svg

<svg viewBox="0 0 24 24" xmlns="http://www.w3.org/2000/svg"><path d="m4 4v1 14 1h1 14 1v-15-1zm1 1h4v2h-4zm5 0h4v1 1h-4v-1zm5 0h4v2h-3-1v-1zm-10 3h4v2h-4zm5 0h4v1 1h-4v-1zm5 0h4v1 1h-4v-1zm-10 3h4v2h-4zm5 0h4v2h-4zm5 0h4v2h-4zm-10 3h4v2h-4zm5 0h4v2h-4v-1zm5 0h4v1 1h-4v-1z" fill="#4d4d4d"/></svg>

<svg viewBox="0 0 24 24" xmlns="http://www.w3.org/2000/svg">
  <path
     style="fill:#4d4d4d"
     d="m 4,4 v 1 14 1 h 1 14 1 V 5 4 Z M 5,5 H 9 V 7 H 5 Z m 5,0 h 4 V 6 7 H 10 V 6 Z m 5,0 h 4 V 7 H 16 15 V 6 Z M 5,8 h 4 v 2 H 5 Z m 5,0 h 4 v 1 1 H 10 V 9 Z m 5,0 h 4 v 1 1 H 15 V 9 Z M 5,11 h 4 v 2 H 5 Z m 5,0 h 4 v 2 h -4 z m 5,0 h 4 v 2 H 15 Z M 5,14 h 4 v 2 H 5 Z m 5,0 h 4 v 2 h -4 v -1 z m 5,0 h 4 v 1 1 h -4 v -1 z"
     />
</svg>
